X: 88
I: linebreak $
C: 
T: Row Well Ye Mariners
T: longways for as many as will
P: AA BB x 3
K: G major
M: 6/4
L: 1/8
G2 | "D"F4E2 F4G2 | A6 A4B2 | "C"c2d2c2 "G"B2A2B2 | "D"A4G2 "G"G4G2 | "D"F4E2 F4G2 | A6 A4B2 | 
"C"c2d2c2 "G"B2A2B2 | "D"A4G2 "G"G4d2 || "G"d2e2d2 "D"A4B2 | "G"c2d2B2 "D"A4d2 | "G"d2e2d2 "D"A4B2 | "G"c2d2B2 "D"A4G2 || 
"G"G2A2G2 "D"F4G2 | "D"A2F2D2 "G"G4G2 | "G"G2A2G2 "D"F4G2 | "D"A2F2D2 "G"G6 |: "G"d6 "D"A6 | "G"d6 "D"A6 | 
"D"d4e2 d4c2 | "G"B4A2 G6 :| 

